X:6902
T:The High Level
O:england
M:2/4
L:1/16
Q:100
C:James Hill
S:Scott Skinner
R:Hornpipe
B:The Scottish Violinist
K:Bb
dc|BdFB DFBd|fbdf Bdc=B|ceAc FCFB|AFAc ecAc|
BdFB DFBd|fbdf BdcB|GABc d=efc|AFAc B2:||
cB|Afcf Afcf|AFAc fcAc|dfBf dfBf|dBdf bfdf|
=egcg =egcg|=ec=eg bg=eg|fcaf gb=eg|1f=efg fd:|2f=efg f_edc||


